!!!SOCIAL_FUNCTION:	songs connected with the treatment of the sick
!!!PDT:	1932
!!!OTL: No_61_Juggler's_Song_(a).krn
!!!REG: Wisconsin
!!!LANG: Non-Tone
!!!LING_GROUP: Algonquin
**kern
*staff1
=1-
*clefF4
*k[]
*M2/4
4r
8r
16r
16d\
=2
4d\
4e-\
=3||
*M3/4
4d\
4.d\
8r
=4||
*M2/4
(8.d\L
16c\Jk)
4c\
=5
[2d\
=6
4d\]
8.r
16d\
=7
4c\
4d\
=8||
*M3/4
(8d\L
8c\J)
2A\
=9||
*M2/4
(8.A\L
16G\Jk)
4G\
=10
[2G\
=11||
*M3/4
4G\]
4r
8.r
16c\
=12||
*M2/4
4c\
4c\
=13||
*M3/4
4c\
8c\
8r
4r
=14||
*M2/4
(8.c\L
16A\Jk)
4A\
=15
[2c\
=16
4c\]
8.r
16c\
=17
4A\
4d\
=18||
*M3/4
(8d\L
8c\J)
4.A\
8r
=19||
*M2/4
(8.A\L
16G\Jk)
4G\
=20
2G\
=21||
*M3/4
4G\
4r
8r
8B-\
=22
4A\
(2c\
=23||
*M2/4
4G\)
[4G\
=24
8G\]
8r
4G\
=25
8.G^\L
16E\Jk
8E\
16r
16A\
=26
4G\
8A\L
8G\J
=27
(8A\L
(8G\J)
(4G\)
=28
4G\)
(8E\L
8D\J)
=29
4C/
4C/
=30
[2C/
=31
2C/]
==
*-
